assets/img/braze_icons/refresh-ccw-04.svg

<svg fill="none" height="24" viewBox="0 0 24 24" width="24" xmlns="http://www.w3.org/2000/svg"><g fill="#801ed7"><path d="m12.2929.892869c.3905-.390525 1.0237-.390525 1.4142 0 .3905.390521.3905 1.023691 0 1.414211l-.2969.29687c4.578.68126 8.0898 4.62854 8.0898 9.39605 0 3.1587-1.5426 5.9572-3.9111 7.6828-.4464.3253-1.0719.227-1.3971-.2193-.3253-.4464-.227-1.0719.2193-1.3971 1.8742-1.3654 3.0889-3.574 3.0889-6.0664 0-3.6442-2.5991-6.68135-6.0447-7.3589l.2518.25177c.3905.39052.3905 1.02369 0 1.41421-.3905.39053-1.0237.39053-1.4142 0l-2-2c-.39053-.39052-.39053-1.02369 0-1.41421z"/><path d="m6.41115 4.3172c.44637-.32522 1.07187-.227 1.39709.21938.32521.44638.22699 1.07188-.21939 1.39709-1.8741 1.36541-3.08885 3.57398-3.08885 6.06633 0 3.6443 2.5991 6.6814 6.0447 7.3589l-.2518-.2518c-.39053-.3905-.39053-1.0237 0-1.4142.3905-.3905 1.0237-.3905 1.4142 0l2 2c.3905.3905.3905 1.0237 0 1.4142l-2 2c-.3905.3906-1.0237.3906-1.4142 0-.39053-.3905-.39053-1.0237 0-1.4142l.2968-.2968c-4.57787-.6813-8.0897-4.6286-8.0897-9.3961 0-3.15865 1.54258-5.95715 3.91115-7.6828z"/></g></svg>

<svg width="24" height="24" viewBox="0 0 24 24" fill="none" xmlns="http://www.w3.org/2000/svg">
<path d="M12.2929 0.892869C12.6834 0.502344 13.3166 0.502344 13.7071 0.892869C14.0976 1.28339 14.0976 1.91656 13.7071 2.30708L13.4102 2.60395C17.9882 3.28521 21.5 7.23249 21.5 12C21.5 15.1587 19.9574 17.9572 17.5889 19.6828C17.1425 20.0081 16.517 19.9098 16.1918 19.4635C15.8665 19.0171 15.9648 18.3916 16.4111 18.0664C18.2853 16.701 19.5 14.4924 19.5 12C19.5 8.3558 16.9009 5.31865 13.4553 4.6411L13.7071 4.89287C14.0976 5.28339 14.0976 5.91656 13.7071 6.30708C13.3166 6.69761 12.6834 6.69761 12.2929 6.30708L10.2929 4.30708C9.90237 3.91656 9.90237 3.28339 10.2929 2.89287L12.2929 0.892869Z" fill="#801ED7"/>
<path d="M6.41115 4.3172C6.85752 3.99198 7.48302 4.0902 7.80824 4.53658C8.13345 4.98296 8.03523 5.60846 7.58885 5.93367C5.71475 7.29908 4.5 9.50765 4.5 12C4.5 15.6443 7.0991 18.6814 10.5447 19.3589L10.2929 19.1071C9.90237 18.7166 9.90237 18.0834 10.2929 17.6929C10.6834 17.3024 11.3166 17.3024 11.7071 17.6929L13.7071 19.6929C14.0976 20.0834 14.0976 20.7166 13.7071 21.1071L11.7071 23.1071C11.3166 23.4977 10.6834 23.4977 10.2929 23.1071C9.90237 22.7166 9.90237 22.0834 10.2929 21.6929L10.5897 21.3961C6.01183 20.7148 2.5 16.7675 2.5 12C2.5 8.84135 4.04258 6.04285 6.41115 4.3172Z" fill="#801ED7"/>
</svg>
